icons/svg/nest-protect.svg

﻿<?xml version="1.0" encoding="utf-8"?>
<!DOCTYPE svg PUBLIC "-//W3C//DTD SVG 1.1//EN" "http://www.w3.org/Graphics/SVG/1.1/DTD/svg11.dtd">
<svg xmlns="http://www.w3.org/2000/svg" xmlns:xlink="http://www.w3.org/1999/xlink" version="1.1" baseProfile="full" width="24" height="24" viewBox="0 0 24.00 24.00" enable-background="new 0 0 24.00 24.00" xml:space="preserve">
	<path fill="#000000" fill-opacity="1" stroke-width="0.2" stroke-linejoin="round" d="M 11.9994,17.9981C 15.3134,17.9981 17.9994,15.3121 17.9994,11.9981C 17.9994,8.68406 15.3134,5.99807 11.9994,5.99807C 8.68439,5.99807 5.99939,8.68406 5.99939,11.9981C 5.99939,15.3121 8.68439,17.9981 11.9994,17.9981 Z M 18.9994,2.99807C 20.1034,2.99807 20.9994,3.89406 20.9994,4.99807L 20.9994,18.9981C 20.9994,20.1021 20.1034,20.9981 18.9994,20.9981L 4.99939,20.9981C 3.89437,20.9981 2.99939,20.1021 2.99939,18.9981L 2.99939,4.99807C 2.99939,3.89406 3.89437,2.99807 4.99939,2.99807L 18.9994,2.99807 Z M 7.99939,11.9981C 7.99939,9.79006 9.79138,7.99807 11.9994,7.99807C 14.2074,7.99807 15.9994,9.79006 15.9994,11.9981C 15.9994,14.2061 14.2074,15.9981 11.9994,15.9981C 9.79138,15.9981 7.99939,14.2061 7.99939,11.9981 Z "/>
</svg>

<svg xmlns="http://www.w3.org/2000/svg" version="1.1" baseProfile="full" width="24" height="24" viewBox="0 0 24.00 24.00" xml:space="preserve"><path fill="#000" fill-opacity="1" stroke-width=".2" stroke-linejoin="round" d="M12 17.998c3.313 0 6-2.686 6-6s-2.687-6-6-6c-3.316 0-6 2.686-6 6s2.684 6 6 6zm7-15c1.103 0 2 .896 2 2v14c0 1.104-.897 2-2 2H5c-1.106 0-2-.896-2-2v-14c0-1.104.894-2 2-2h14zm-11 9c0-2.208 1.79-4 4-4 2.207 0 4 1.792 4 4s-1.793 4-4 4c-2.21 0-4-1.792-4-4z"/></svg>
